client/src/assets/images/icons/roller-skate.svg

<?xml version="1.0" encoding="UTF-8"?>
<svg viewBox="0 0 384 384" xmlns="http://www.w3.org/2000/svg">
  <path d="m324.26 284.37c29.776-8.208 51.736-35.376 51.736-67.624 0-38.712-31.608-70.208-70.464-70.208h-53.744l-79.216-66.888v-63.648c0-8.832-7.168-16-16-16h-132.58c-8.832 0-16 7.168-16 16v224.36c0 20.856 13.808 38.544 32.792 44.48-19.168 7.496-32.792 26.064-32.792 47.792 0 28.32 23.112 51.368 51.52 51.368 22.808 0 42.168-14.864 48.936-35.368h25.784c6.76 20.504 26.128 35.368 48.928 35.368s42.168-14.864 48.928-35.368h25.784c6.768 20.504 26.128 35.368 48.936 35.368 28.408 0 51.52-23.048 51.52-51.368 0-22.208-14.24-41.112-34.072-48.264zm-284.26-252.37h100.57v17.64h-100.57v-17.64zm0 208.34v-158.7h100.57v5.432c0 1.064 0.136 2.104 0.344 3.128l-16.176 13.256c-6.832 5.6-7.832 15.68-2.232 22.512 3.168 3.856 7.752 5.856 12.384 5.856 3.568 0 7.16-1.184 10.136-3.624l17.992-14.752 15.68 13.24-16.76 14.016c-6.776 5.672-7.672 15.768-2.008 22.536 3.168 3.784 7.704 5.736 12.28 5.736 3.624 0 7.264-1.224 10.256-3.728l21.048-17.608 17.688 14.936-20.208 17.2c-6.728 5.728-7.536 15.824-1.816 22.552 3.168 3.712 7.664 5.624 12.192 5.624 3.664 0 7.352-1.256 10.36-3.824l30.088-25.616h53.712c21.208 0 38.464 17.144 38.464 38.208 0 21.08-17.256 38.224-38.464 38.224h-250.77c-8.144 0-14.76-6.552-14.76-14.608zm19.52 111.66c-10.768 0-19.52-8.688-19.52-19.368 0-10.672 8.76-19.36 19.52-19.36 10.768 0 19.528 8.688 19.528 19.36 0 10.68-8.76 19.368-19.528 19.368zm74.72-35.368h-25.784c-4.256-12.896-13.504-23.536-25.456-29.664h76.696c-11.96 6.136-21.2 16.768-25.456 29.664zm48.928 35.368c-10.768 0-19.52-8.688-19.52-19.368 0-10.672 8.76-19.36 19.52-19.36s19.52 8.688 19.52 19.36c0 10.68-8.752 19.368-19.52 19.368zm74.712-35.368h-25.784c-4.256-12.896-13.504-23.536-25.456-29.664h76.696c-11.952 6.136-21.2 16.768-25.456 29.664zm48.936 35.368c-10.768 0-19.52-8.688-19.52-19.368 0-10.672 8.76-19.36 19.52-19.36s19.52 8.688 19.52 19.36c0 10.68-8.76 19.368-19.52 19.368z"/>
</svg>

<?xml version="1.0" encoding="iso-8859-1"?>
<svg version="1.1" id="Capa_1" xmlns="http://www.w3.org/2000/svg" x="0px" y="0px"
     viewBox="0 0 384 384" style="enable-background:new 0 0 384 384;" xml:space="preserve">
	<g>
		<path d="M324.264,284.368C354.04,276.16,376,248.992,376,216.744c0-38.712-31.608-70.208-70.464-70.208h-53.744l-79.216-66.888V16
			c0-8.832-7.168-16-16-16H24C15.168,0,8,7.168,8,16v224.36c0,20.856,13.808,38.544,32.792,44.48
			C21.624,292.336,8,310.904,8,332.632C8,360.952,31.112,384,59.52,384c22.808,0,42.168-14.864,48.936-35.368h25.784
			C141,369.136,160.368,384,183.168,384c22.8,0,42.168-14.864,48.928-35.368h25.784C264.648,369.136,284.008,384,306.816,384
			c28.408,0,51.52-23.048,51.52-51.368C358.336,310.424,344.096,291.52,324.264,284.368z M40,32h100.568v17.64H40V32z M40,240.336
			V81.64h100.568v5.432c0,1.064,0.136,2.104,0.344,3.128l-16.176,13.256c-6.832,5.6-7.832,15.68-2.232,22.512
			c3.168,3.856,7.752,5.856,12.384,5.856c3.568,0,7.16-1.184,10.136-3.624l17.992-14.752l15.68,13.24l-16.76,14.016
			c-6.776,5.672-7.672,15.768-2.008,22.536c3.168,3.784,7.704,5.736,12.28,5.736c3.624,0,7.264-1.224,10.256-3.728l21.048-17.608
			l17.688,14.936l-20.208,17.2c-6.728,5.728-7.536,15.824-1.816,22.552c3.168,3.712,7.664,5.624,12.192,5.624
			c3.664,0,7.352-1.256,10.36-3.824l30.088-25.616h53.712c21.208,0,38.464,17.144,38.464,38.208
			c0,21.08-17.256,38.224-38.464,38.224H54.76C46.616,254.944,40,248.392,40,240.336z M59.52,352C48.752,352,40,343.312,40,332.632
			c0-10.672,8.76-19.36,19.52-19.36c10.768,0,19.528,8.688,19.528,19.36C79.048,343.312,70.288,352,59.52,352z M134.24,316.632
			h-25.784C104.2,303.736,94.952,293.096,83,286.968h76.696C147.736,293.104,138.496,303.736,134.24,316.632z M183.168,352
			c-10.768,0-19.52-8.688-19.52-19.368c0-10.672,8.76-19.36,19.52-19.36s19.52,8.688,19.52,19.36
			C202.688,343.312,193.936,352,183.168,352z M257.88,316.632h-25.784c-4.256-12.896-13.504-23.536-25.456-29.664h76.696
			C271.384,293.104,262.136,303.736,257.88,316.632z M306.816,352c-10.768,0-19.52-8.688-19.52-19.368
			c0-10.672,8.76-19.36,19.52-19.36c10.76,0,19.52,8.688,19.52,19.36C326.336,343.312,317.576,352,306.816,352z"/>
	</g>
</svg>
